X:1
T:He Rescued Me
T:He Rescued Me
T:Lida Shivers Leech
T:Lida Shivers Leech, 1909
T:Public Domain Courtesy of the Cyber Hymnal™
C:Lida Shivers Leech
Z:Public Domain
Z:Courtesy of the Cyber Hymnal™
%%score ( 1 2 ) ( 3 4 )
L:1/8
Q:1/4=100
M:4/4
K:G
V:1 treble 
V:2 treble 
V:3 bass 
V:4 bass 
V:1
 [B,D]2 [B,G]>[CA] [DB] [DB]2 [CA] | [EG]2 [CE]2 [B,D]3 [GB] | [Gd]2 [Gd]2 [Gd]3 [GB] | %3
w: 1.~I was a sin- ner, but|now I’m free, His|won- drous grace has|
w: 2.~Once I was way- ward, a-|far would stray, His|won- drous grace has|
w: 3.~Once e- vil led me, but|now God reigns, His|won- drous grace has|
 [GB]2 [FA]2 [FA]4 | [B,D]2 [B,G]>[CA] [DB]3 [CA] | [EG]2 [CE]2 [B,D]3 [GB] | %6
w: res- cued me;|Once I was blind, but|now I see, A|
w: res- cued me;|Now I am on the|“King’s High- way.” A|
w: res- cued me;|Bro- ken for e’er are|sin’s dark chains, A|
 [Gd]2 [Gd]>[Gd] [Gd] [Gd]2 [Gc] | [GB]2 [FA]2 [DG]3 ||"^Refrain" [GB] | [Gd]2 [Gd]2 [Gd]3 [GB] | %10
w: brand from the burn- ing, He|res- cued me.|||
w: brand from the burn- ing, He|set me free.|He|res- cued me, His|
w: brand from the burn- ing, He|set me free.|||
 (AG) [CE]2 [B,D]3 [B,D] | [DG]2 [DG]>[DA] [GB] [GB]2 [GB] | [FA]2 [G^c]2 [Fd]4 | %13
w: |||
w: own * to be, A|brand from the burn- ing, He|set me free;|
w: |||
 [Gd]2 [Gd]>[Ge] [Gd] [GB]3 | [DB]>[CA] [EG][CE] [B,D]3 [B,D] | [B,G]2 [B,G]>[DA] [DB] [Dd]2 [Ec] | %16
w: |||
w: Oh, how I’ll praise Him|thro’ e- ter- ni- ty, A|brand from the burn- ing, He|
w: |||
 [DB]2 [CA]2 [B,G]4 |] %17
w: |
w: res- cued me.|
w: |
V:2
 x8 | x8 | x8 | x8 | x8 | x8 | x8 | x7 || x | x8 | E2 x6 | x8 | x8 | x8 | x8 | x8 | x8 |] %17
V:3
 [G,,G,]2 [G,,G,]>[G,,G,] [G,,G,] [G,,G,]2 [G,,G,] | [C,G,]2 [E,G,]2 G,3 [G,D] | %2
 [G,B,]2 [G,B,]2 [G,B,]3 [G,D] | [D,D]2 [D,D]2 (D2 C2) | [G,B,]2 [G,,G,]>[G,,G,] [G,,G,]3 [G,,G,] | %5
 [C,G,]2 [E,G,]2 G,3 [G,D] | [G,B,]2 [G,B,]>[G,B,] [G,B,] [G,B,]2 [C,E] | [D,D]2 [D,C]2 [G,B,]3 || %8
 [G,D] | [G,B,]2 [G,B,]2 [G,B,]3 [G,D] | [C,C]2 [E,G,]2 G,3 G, | %11
 [G,B,]2 [G,B,]>[G,C] [G,D] [G,D]2 [G,D] | [A,D]2 [A,E]2 [D,D]4 | %13
 [G,B,]2 [G,B,]>[G,C] [G,B,] [G,D]3 | [G,,G,]>[G,,G,] [C,G,][E,G,] G,3 G, | %15
 [G,,G,]2 [G,,G,]>[D,F,] G, [G,B,]2 [C,G,] | [D,G,]2 [D,F,]2 [G,,G,]4 |] %17
V:4
 x8 | x4 G,3 x | x8 | x4 D,4 | x8 | x4 G,3 x | x8 | x7 || x | x8 | x4 G,3 G, | x8 | x8 | x8 | %14
 x4 G,3 G, | x4 G, x3 | x8 |] %17

